X:4055
L:1/8
M:4/4
K:C
[M:2/2][K:G] .abc D2"^segno" | G2 (G>B) dBGB | dBeB dBAB | G2 (GB) d2 (Bd) | (3(efg) (dB) AcBA | 
 G2 (GB) dBGB | dBeB dBAB | G2 (GB) dBGB | (3(efg) dB A2 || (ga) | b2 (gb) a2 (fa) | 
 g2 (eg) (fd) B2 | b2 gb a2 ga | gfef d2 (ga) | bagb agfa | gfeg dega | bgaf gfed | 
 (3(efg) dB AcBA"^segno" |]

